X:519
T: DER SCHAEFER TRAEGT SORGEN
N: E0508A
O: Europa, Mitteleuropa, Deutschland, Hessen, Darmstadt, Messel
R: Liebes - Lied
M: 3/4
L: 1/8
K: F
C2 | F2C2F2 | A2F2
A2 | c2dcBA | A2G2
B2 | B2d2fd | c2A2
Ac | cBB2Bd | c4
Ac | cBG2G2 | F4
B2 | B2d2fd | c2A2
Ac | cBB2Bd | c4
Ac | cBG2G2 | F4

@@@ Tune index: 4169
